build/img/advant-icon-08.svg

<svg width="48" height="56" viewBox="0 0 48 56" fill="none" xmlns="http://www.w3.org/2000/svg">
<g opacity="0.5">
<path d="M19.4392 48.9835C19.0502 46.8052 17.5152 44.9829 15.4334 44.2279L13.6666 43.5869V40.7273C13.6766 40.7178 13.6869 40.7088 13.6967 40.6992C14.7618 39.6545 15.3727 38.2051 15.3727 36.7229V33.4296C15.3727 33.0673 15.3362 32.7133 15.2681 32.3707C16.8758 31.9869 18.0752 30.5395 18.0752 28.8165C18.0752 26.8019 16.4351 25.163 14.4192 25.163C12.6567 25.163 11.1815 26.4167 10.8393 28.079C10.5481 28.0306 10.2497 28.0041 9.94504 28.0041C6.95222 28.0041 4.51743 30.438 4.51743 33.4296V36.826C4.51743 38.3665 5.17587 39.7681 6.22521 40.7612V43.6328L4.54368 44.2426C2.49181 44.9873 0.961765 46.7809 0.550734 48.924L0.068829 51.4408C-0.146749 52.5683 0.149438 53.7225 0.881265 54.6075C1.6132 55.4922 2.69153 55.9999 3.83985 55.9999H16.1073C17.247 55.9999 18.3202 55.4988 19.0518 54.6253C19.7833 53.7518 20.088 52.6075 19.8878 51.4852L19.4392 48.9835ZM14.4192 26.8034C15.5305 26.8034 16.4346 27.7064 16.4346 28.8163C16.4346 29.8328 15.6763 30.6737 14.6957 30.8091C14.1731 29.8662 13.3777 29.0952 12.4168 28.6016C12.5244 27.5922 13.3812 26.8034 14.4192 26.8034ZM6.15805 33.4294C6.15805 31.3424 7.85686 29.6445 9.94504 29.6445C12.0332 29.6445 13.7321 31.3424 13.7321 33.4294V33.5552C13.5498 33.673 13.3566 33.7747 13.1531 33.8561C11.7938 34.4 10.2512 34.0103 9.3145 32.8864C9.02444 32.5383 8.5072 32.4914 8.15917 32.7814C7.81114 33.0714 7.76411 33.5887 8.05417 33.9367C9.02826 35.1055 10.4423 35.7404 11.8957 35.7404C12.511 35.7404 13.1333 35.6259 13.7323 35.3906V36.7227C13.7323 37.7672 13.3007 38.7895 12.5481 39.5278C11.8168 40.2451 10.8648 40.6299 9.87067 40.6102C7.82361 40.5708 6.15816 38.873 6.15816 36.8256V33.4294H6.15805ZM9.83884 42.2507C9.8734 42.2514 9.90786 42.2517 9.94242 42.2517C10.6671 42.2517 11.3722 42.1037 12.026 41.8232V43.7967L9.94548 45.612L7.86572 43.7965V41.8318C8.47636 42.0883 9.1419 42.2372 9.83884 42.2507ZM9.95128 52.4217L8.91309 49.3185L9.91923 48.0519L10.8476 49.3167L9.95128 52.4217ZM2.14564 53.5616C1.72651 53.0548 1.55698 52.3939 1.68036 51.7487L2.16215 49.2324C2.4649 47.6541 3.5919 46.3329 5.10324 45.7846L6.90114 45.1325L8.81575 46.8035L7.35177 48.6465C7.17906 48.8638 7.1281 49.1538 7.21614 49.417L8.86945 54.3593H3.83985C3.18229 54.3593 2.56476 54.0685 2.14564 53.5616ZM17.7939 53.572C17.3749 54.0723 16.7602 54.3593 16.1073 54.3593H11.0995L12.5357 49.3842C12.6063 49.1399 12.5594 48.8764 12.4089 48.6713L11.0526 46.8233L13.0274 45.1003L14.8739 45.7703C16.4072 46.3263 17.5377 47.6683 17.8243 49.2726L18.2728 51.7742C18.3874 52.4163 18.2128 53.0717 17.7939 53.572Z" fill="white"/>
<path d="M47.4767 51.4855L47.0291 48.9829C46.6388 46.8044 45.1038 44.9824 43.0233 44.2277L41.2565 43.5868V40.7269C41.2664 40.7175 41.2765 40.7086 41.2863 40.6991C42.3514 39.6544 42.9622 38.205 42.9622 36.7228V33.4295C42.9622 30.4378 40.5274 28.004 37.5346 28.004C34.5418 28.004 32.107 30.4379 32.107 33.4295V36.8259C32.107 38.3665 32.7655 39.7682 33.815 40.7612V43.6327L32.1325 44.2424C30.08 44.9872 28.5504 46.781 28.1406 48.9238L27.6588 51.4401C27.4427 52.5675 27.7382 53.7214 28.4696 54.6064C29.2016 55.492 30.2806 56 31.4298 56H43.6972C44.8372 56 45.9106 55.4987 46.642 54.6248C47.3732 53.7509 47.6774 52.6068 47.4767 51.4855ZM33.7477 33.4294C33.7477 31.3424 35.4465 29.6445 37.5347 29.6445C39.4101 29.6445 40.9705 31.0143 41.2693 32.8051C41.0162 32.943 40.7494 33.0694 40.4721 33.1805C38.9043 33.8079 37.5212 33.7698 37.0155 33.4154C36.6446 33.1552 36.133 33.245 35.873 33.6161C35.6129 33.9871 35.7027 34.4985 36.0737 34.7586C36.5978 35.1261 37.3338 35.3094 38.1783 35.3094C39.066 35.3094 40.0738 35.107 41.0817 34.7035C41.1626 34.6711 41.2422 34.6369 41.3217 34.6026V36.7227C41.3217 37.7672 40.8901 38.7896 40.1375 39.5278C39.4063 40.2451 38.456 40.6321 37.4602 40.6102C35.4132 40.5708 33.7477 38.873 33.7477 36.8256V33.4294ZM37.4286 42.2507C37.4632 42.2513 37.4976 42.2517 37.5322 42.2517C38.2569 42.2517 38.9621 42.1037 39.616 41.823V43.7732C38.3795 44.6505 36.6932 44.6515 35.4557 43.7721V41.8318C36.0663 42.0884 36.7317 42.2372 37.4286 42.2507ZM45.384 53.5717C44.9651 54.0722 44.3504 54.3592 43.6973 54.3592H31.4299C30.7715 54.3592 30.1536 54.0683 29.7343 53.5611C29.3156 53.0545 29.1464 52.394 29.2703 51.7487L29.7522 49.2319C30.0538 47.654 31.1804 46.333 32.6917 45.7846L34.5223 45.1213C35.4202 45.7534 36.4781 46.0691 37.536 46.0691C38.6113 46.0691 39.6865 45.7428 40.5928 45.0913L42.4639 45.77C43.9963 46.3258 45.1268 47.6678 45.4142 49.272L45.8616 51.7744C45.9767 52.4164 45.8025 53.0716 45.384 53.5717Z" fill="white"/>
<path d="M6.69563 20.1699H8.93683V23.9226C8.93683 24.2543 9.13666 24.5534 9.44313 24.6804C9.74959 24.8074 10.1024 24.7373 10.337 24.5028L14.6717 20.17H32.3939L36.7285 24.5028C36.8855 24.6596 37.0953 24.7429 37.3087 24.7429C37.4143 24.7429 37.5209 24.7224 37.6226 24.6804C37.929 24.5534 38.1289 24.2543 38.1289 23.9226V20.1699H40.37C43.3664 20.1699 45.804 17.7333 45.804 14.738V5.43199C45.8039 2.43676 43.3662 0 40.3698 0H6.69563C3.69931 0 1.26167 2.43665 1.26167 5.43188V14.738C1.26167 17.7333 3.69931 20.1699 6.69563 20.1699ZM2.90229 5.43188C2.90229 3.3414 4.60395 1.64062 6.69563 1.64062H40.3698C42.4615 1.64062 44.1632 3.3414 44.1632 5.43199V14.738C44.1632 16.8285 42.4615 18.5293 40.3698 18.5293H37.806C37.0792 18.5293 36.488 19.1204 36.488 19.847V21.9428L33.4589 18.9148C33.2099 18.6662 32.8791 18.5293 32.5272 18.5293H14.5382C14.1865 18.5293 13.8556 18.6662 13.6064 18.9151L10.5775 21.9428V19.847C10.5775 19.1204 9.98628 18.5293 9.25949 18.5293H6.69563C4.60395 18.5293 2.90229 16.8285 2.90229 14.738V5.43188Z" fill="white"/>
<path d="M11.497 7.15399H38.8953C39.3484 7.15399 39.7157 6.78682 39.7157 6.33368C39.7157 5.88054 39.3484 5.51337 38.8953 5.51337H11.497C11.0439 5.51337 10.6767 5.88054 10.6767 6.33368C10.6767 6.78682 11.0438 7.15399 11.497 7.15399Z" fill="white"/>
<path d="M8.44103 7.16416C8.89986 7.16416 9.27173 6.7924 9.27173 6.33379C9.27173 5.87518 8.89975 5.50342 8.44103 5.50342C7.98221 5.50342 7.61022 5.87518 7.61022 6.33379C7.61022 6.7924 7.98221 7.16416 8.44103 7.16416Z" fill="white"/>
<path d="M8.17033 10.9527H35.8042C36.2572 10.9527 36.6245 10.5855 36.6245 10.1324C36.6245 9.67924 36.2572 9.31207 35.8042 9.31207H8.17033C7.7173 9.31207 7.35002 9.67924 7.35002 10.1324C7.35002 10.5855 7.71719 10.9527 8.17033 10.9527Z" fill="white"/>
<path d="M39.5097 10.1323C39.5097 9.67365 39.1377 9.30188 38.679 9.30188C38.2202 9.30188 37.8483 9.67365 37.8483 10.1323C37.8483 10.5909 38.2202 10.9626 38.679 10.9626C39.1377 10.9626 39.5097 10.5909 39.5097 10.1323Z" fill="white"/>
<path d="M38.8953 13.1105H11.497C11.0439 13.1105 10.6767 13.4777 10.6767 13.9308C10.6767 14.384 11.0439 14.7512 11.497 14.7512H38.8953C39.3484 14.7512 39.7157 14.384 39.7157 13.9308C39.7157 13.4777 39.3484 13.1105 38.8953 13.1105Z" fill="white"/>
<path d="M8.44103 13.1005C7.98221 13.1005 7.61022 13.4722 7.61022 13.9308C7.61022 14.3894 7.98221 14.7612 8.44103 14.7612C8.89986 14.7612 9.27173 14.3894 9.27173 13.9308C9.27173 13.4722 8.89986 13.1005 8.44103 13.1005Z" fill="white"/>
</g>
</svg>

<svg width="48" height="56" fill="none" xmlns="http://www.w3.org/2000/svg"><g opacity=".5" fill="#fff"><path d="M19.44 48.983a6.242 6.242 0 00-4.007-4.755l-1.766-.641v-2.86l.03-.028a5.606 5.606 0 001.676-3.976V33.43c0-.363-.037-.717-.105-1.06a3.66 3.66 0 002.807-3.553 3.659 3.659 0 00-3.656-3.654 3.66 3.66 0 00-3.58 2.916 5.433 5.433 0 00-6.322 5.35v3.397c0 1.54.659 2.942 1.708 3.935v2.872l-1.681.61A6.258 6.258 0 00.55 48.924l-.482 2.517a3.826 3.826 0 00.812 3.166A3.828 3.828 0 003.84 56h12.267c1.14 0 2.213-.501 2.945-1.375a3.83 3.83 0 00.836-3.14l-.449-2.502zm-5.02-22.18c1.11 0 2.015.903 2.015 2.013a2.016 2.016 0 01-1.74 1.993 5.464 5.464 0 00-2.278-2.207 2.016 2.016 0 012.002-1.799zM6.157 33.43a3.79 3.79 0 013.787-3.785 3.79 3.79 0 013.787 3.785v.126a3.36 3.36 0 01-4.418-.669.82.82 0 10-1.26 1.05 4.994 4.994 0 005.678 1.455v1.332a3.956 3.956 0 01-1.184 2.805 3.702 3.702 0 01-2.677 1.082 3.805 3.805 0 01-3.713-3.784V33.43zm3.68 8.822h.104c.725 0 1.43-.147 2.084-.428v1.974l-2.08 1.815-2.08-1.816v-1.964a5.37 5.37 0 001.973.419zm.113 10.17L8.913 49.32l1.006-1.267.929 1.265-.897 3.105zm-7.805 1.14a2.19 2.19 0 01-.466-1.812l.482-2.517a4.609 4.609 0 012.941-3.447l1.798-.652 1.915 1.67-1.464 1.844a.82.82 0 00-.136.77l1.653 4.942H3.84c-.657 0-1.274-.29-1.693-.797zm15.648.011c-.42.5-1.034.787-1.687.787H11.1l1.436-4.975a.82.82 0 00-.127-.713l-1.356-1.848 1.974-1.723 1.847.67a4.597 4.597 0 012.95 3.503l.449 2.501a2.194 2.194 0 01-.48 1.798zm29.684-2.087l-.448-2.503a6.245 6.245 0 00-4.006-4.755l-1.767-.641v-2.86l.03-.028a5.606 5.606 0 001.676-3.976v-3.294a5.433 5.433 0 00-5.427-5.425 5.433 5.433 0 00-5.428 5.425v3.397c0 1.54.659 2.942 1.708 3.935v2.872l-1.682.61a6.254 6.254 0 00-3.992 4.68l-.482 2.517a3.824 3.824 0 00.81 3.166A3.829 3.829 0 0031.43 56h12.268a3.83 3.83 0 002.945-1.375 3.829 3.829 0 00.835-3.14zm-13.73-18.057a3.79 3.79 0 013.788-3.785 3.792 3.792 0 013.734 3.161c-.253.138-.52.264-.797.376-1.568.627-2.95.589-3.456.234a.82.82 0 10-.942 1.344c.524.367 1.26.55 2.104.55.888 0 1.896-.202 2.904-.605l.24-.101v2.12a3.956 3.956 0 01-1.184 2.805c-.732.717-1.682 1.104-2.678 1.082a3.805 3.805 0 01-3.712-3.784v-3.397zm3.682 8.822h.103a5.27 5.27 0 002.084-.428v1.95a3.614 3.614 0 01-4.16 0v-1.941a5.35 5.35 0 001.973.419zm7.955 11.32a2.194 2.194 0 01-1.687.788H31.43c-.659 0-1.276-.29-1.696-.798a2.188 2.188 0 01-.464-1.812l.482-2.517a4.605 4.605 0 012.94-3.447l1.83-.664a5.232 5.232 0 003.014.948c1.075 0 2.15-.326 3.057-.978l1.87.679a4.6 4.6 0 012.951 3.502l.448 2.502a2.191 2.191 0 01-.478 1.798zM6.696 20.17h2.24v3.753a.82.82 0 001.401.58l4.335-4.333h17.722l4.334 4.333a.82.82 0 001.4-.58V20.17h2.242a5.439 5.439 0 005.434-5.432V5.432A5.44 5.44 0 0040.37 0H6.696a5.439 5.439 0 00-5.434 5.432v9.306a5.439 5.439 0 005.434 5.432zM2.902 5.432A3.797 3.797 0 016.696 1.64H40.37c2.092 0 3.793 1.7 3.793 3.791v9.306a3.797 3.797 0 01-3.793 3.791h-2.564a1.32 1.32 0 00-1.318 1.318v2.096l-3.03-3.028a1.31 1.31 0 00-.93-.386h-17.99a1.31 1.31 0 00-.932.386l-3.028 3.028v-2.096a1.32 1.32 0 00-1.319-1.318H6.696a3.797 3.797 0 01-3.794-3.791V5.432z"/><path d="M11.497 7.154h27.398a.82.82 0 100-1.64H11.497a.82.82 0 100 1.64zm-3.056.01a.83.83 0 100-1.66.83.83 0 000 1.66zm-.271 3.789h27.634a.82.82 0 100-1.64H8.17a.82.82 0 100 1.64zm31.34-.821a.83.83 0 10-1.661 0 .83.83 0 001.66 0zm-.615 2.978H11.497a.82.82 0 100 1.641h27.398a.82.82 0 100-1.64zM8.441 13.1a.83.83 0 100 1.662.83.83 0 000-1.662z"/></g></svg>
